icons/core/notebook.svg

<svg width="32" height="32" viewBox="0 0 32 32" fill="none" xmlns="http://www.w3.org/2000/svg">
<path fill-rule="evenodd" clip-rule="evenodd" d="M8 2C6.89543 2 6 2.89543 6 4V8H4V10H6V15H4V17H6V22H4V24H6V28C6 29.1046 6.89543 30 8 30H26C27.1046 30 28 29.1046 28 28V4C28 2.89543 27.1046 2 26 2H8ZM8 10V15H10V17H8V22H10V24H8V28H26V4L8 4V8H10V10H8Z" fill="black"/>
</svg>

<svg width="32" height="32" viewBox="0 0 32 32" xmlns="http://www.w3.org/2000/svg">
    <path fill-rule="evenodd" d="M8 2a2 2 0 00-2 2v4H4v2h2v5H4v2h2v5H4v2h2v4a2 2 0 002 2h18a2 2 0 002-2V4a2 2 0 00-2-2H8zm0 8v5h2v2H8v5h2v2H8v4h18V4H8v4h2v2H8z"/>
</svg>
